X: 20643
Q: "Slow."
M: 6/8
L: 1/8
K: G
cAc fdf | cAF F2 (G/F/) |\
d>cB c>BA | d<BG G2 :|
d |\
gdg b>ag | fga Hb2 (a/g/) |\
f>ed cA (f/d/) | cAF F2d |\
gd (g/a/) b>ag | fga b2 a/g/ |\
f>=ed c<Ac | dBG G2d |
gdg b2 a/g/ | fga b2 a/g/ |\
f>=ed cA f/d/ | cAF F2 G/F/ |\
d>cB c>BA | dBG G2 |]


